src/topics/icons/500px.svg

<svg height="330" preserveAspectRatio="xMidYMid" viewBox="0 0 256 330" width="256" xmlns="http://www.w3.org/2000/svg"><path d="m251.546573 273.498817h.000659c-2.321769-2.315187-4.29343-3.682056-6.028175-4.179578-1.759095-.505419-3.329975-.128987-4.543507 1.087836l-1.141799 1.139825c-11.958293 11.958951-25.882982 21.348031-41.387764 27.905974-16.045079 6.786303-33.094416 10.227496-50.67418 10.227496-17.580421 0-34.6291-3.441193-50.6735215-10.227496-15.5034653-6.557285-29.4274961-15.945707-41.3857892-27.905316-12.4591054-12.458447-21.847527-26.38182-27.904-41.383815-5.9057686-14.627537-7.8346529-25.629614-8.468401-29.244545-.0592288-.33892-.1059537-.606766-.1428072-.800247-.8127506-4.257234-4.7310643-4.554694-10.36240617-3.693244-2.34151157.358005-9.46805141 1.448473-8.7895527 6.575712l.01645245.117141c1.88676606 11.868792 5.21937275 23.506592 9.90700257 34.588957 7.53390235 17.812072 18.31617485 33.805162 32.04804115 47.535712 13.7318663 13.732524 29.7256144 24.514797 47.5370283 32.047383 18.4398973 7.802406 38.0275163 11.758231 58.2179533 11.758231 20.179908 0 39.768185-3.957799 58.218612-11.764154 17.805491-7.529954 33.799239-18.314201 47.537687-32.053306.031588-.031589.78182-.775897 1.192473-1.223404 1.51165-1.645902 2.827187-4.525737-3.174006-10.509162zm-103.961007-238.2438658c-19.292792 0-39.815568 3.8946221-54.8939026 10.4170282-1.6116812.6311157-2.5751362 1.9255939-2.7870437 3.7445759-.1980874 1.7156606.2652134 3.9795167 1.4182005 6.9251619.9351568 2.3895527 3.4188175 8.7369049 8.2275373 6.9027867 15.4317325-5.8866838 32.4909405-9.1284731 48.0352085-9.1284731 17.613984 0 34.696226 3.4477738 50.773552 10.2472391 12.774335 5.4042982 24.828052 13.210653 37.932751 24.5661286.955558.8285449 1.969686 1.2484113 3.014087 1.2484113 2.554736 0 5.005491-2.5099846 7.101533-4.8620257 3.499105-3.9255527 5.902478-7.1884011 2.454704-10.4538818-12.514386-11.8549717-26.227825-20.7109923-43.15673-27.8697789-18.410941-7.787928-37.965656-11.7371722-58.119897-11.7371722zm-26.301532 163.1259638c.023033 2.180278 2.018385 4.092052 3.2102 5.234509l.374458.361296c2.044051 2.010488 3.991362 3.029882 5.786653 3.029882 1.486642 0 2.402714-.702849 2.727156-1.004916.900278-.836442 11.085656-11.15673 12.057666-12.141244l11.358766 11.321913c1.05164 1.184576 2.194756 1.77818 3.526746 1.815033 1.813717 0 3.790643-1.078622 5.874838-3.205594 4.901511-5.004833 2.448781-7.703691 1.262889-9.008041l-11.508812-11.512761 12.002386-12.08728c2.631732-2.848247.307989-5.874838-2.010489-8.193316-3.366169-3.366828-6.613882-4.235517-8.696103-2.317162l-11.933943 11.955003-12.068854-12.072144c-.639671-.612689-1.446498-.936473-2.332956-.936473-1.608391 0-3.510951 1.087177-5.656349 3.232575-3.711671 3.711013-4.507312 6.276278-2.575795 8.322962l12.072144 12.03529-12.001069 12.022129c-.987147.98583-1.481378 2.044709-1.469532 3.148339zm-76.5314965 17.823918c.0723907.199404 1.7768637 4.913357 2.7646683 7.249604 5.4220669 12.820401 13.1869615 24.336452 23.0788278 34.228977 9.8852854 9.883969 21.402653 17.648206 34.2335834 23.074879 13.282386 5.618838 27.38871 8.467743 41.927404 8.467743 14.536061 0 28.642385-2.849563 41.927403-8.469059 12.825666-5.424699 24.343692-13.189594 34.232926-23.078828 9.888576-9.88726 17.652812-21.405285 23.078828-34.232267 5.618838-13.28436 8.467742-27.391342 8.467742-41.928062 0-14.537378-2.848904-28.64436-8.467742-41.927404-5.4247-12.826323-13.189594-24.344349-23.078828-34.233583-9.885944-9.8866016-21.403969-17.6514962-34.232926-23.0788279-13.283701-5.618838-27.390025-8.4677429-41.927403-8.4677429-14.7098 0-29.407753 2.9278766-42.505872 8.4677429-10.4696758 4.4289975-28.1909303 15.831198-38.563866 26.5292339l-.0612031.062519v-88.6418094l148.9011821-.0013162c5.418777-.0592288 5.418777-7.626036 5.418777-10.1129872 0-2.48563492 0-10.05046782-5.435229-10.112329l-161.0016247-.0013162c-4.3829306 0-7.0962674 3.64586118-7.0962674 7.02387661v124.76808239c0 4.024925 5.0140463 6.931743 9.6727198 7.928103 9.0982005 1.943362 11.2001645-.964772 13.4284833-4.042036l.2954859-.408021c3.4017069-5.053532 14.0319588-15.752226 14.1385707-15.858838 16.5893264-16.589326 38.7711674-25.7250385 62.4580774-25.7250385 23.573717 0 45.69238 9.1357125 62.281707 25.7250385 16.645264 16.646581 25.812565 38.702725 25.812565 62.106653 0 23.488823-9.119918 45.544309-25.680946 62.105337-16.349121 16.349121-39.189059 25.725696-62.662087 25.725696-15.898982 0-31.24582-4.236174-44.39198-12.25312l.055939-75.864185c0-10.11562 4.390169-21.111774 11.742437-29.415651 8.406539-9.493059 19.991691-14.720987 32.62256-14.720987 12.232062 0 23.655979 4.643537 32.168473 13.075743 8.451291 8.372319 13.105357 19.526416 13.105357 31.40837 0 25.351897-19.935095 45.210653-45.383732 45.210653-4.906119 0-13.824658-2.167774-14.191219-2.257275-5.138427-1.530077-7.324627 5.603702-8.043928 7.955085-2.765984 9.04292 1.390561 10.835578 2.25201 11.103424 8.189368 2.541573 13.559445 3.023301 20.603723 3.023301 35.926211 0 65.153645-29.242571 65.153645-65.185234 0-35.654417-29.209666-64.662046-65.113501-64.662046-17.582396 0-34.09999 6.721151-46.50908 18.924915-11.81746 11.622663-18.5958662 27.119547-18.5958662 42.513768l-.006581.382355c-.0572545 1.919671-.094766 47.398828-.1059537 62.323825l-.067126-.074365c-6.7527403-7.477306-13.4271671-18.922941-17.8522159-30.616678-1.7347455-4.582993-5.6530591-3.771558-11.0001028-2.124998-2.3349306.719301-9.4410694 2.908134-7.8695322 8.045244z" fill="#0a0a08"/></svg>

<?xml version="1.0" encoding="UTF-8" standalone="no"?>
<svg width="256px" height="330px" viewBox="0 0 256 330" version="1.1" xmlns="http://www.w3.org/2000/svg" xmlns:xlink="http://www.w3.org/1999/xlink" preserveAspectRatio="xMidYMid">
    <g>
        <path d="M251.546573,273.498817 L251.547232,273.498817 C249.225463,271.18363 247.253802,269.816761 245.519057,269.319239 C243.759962,268.81382 242.189082,269.190252 240.97555,270.407075 L239.833751,271.5469 C227.875458,283.505851 213.950769,292.894931 198.445987,299.452874 C182.400908,306.239177 165.351571,309.68037 147.771807,309.68037 C130.191386,309.68037 113.142707,306.239177 97.0982855,299.452874 C81.5948202,292.895589 67.6707894,283.507167 55.7124963,271.547558 C43.2533909,259.089111 33.8649693,245.165738 27.8084963,230.163743 C21.9027277,215.536206 19.9738434,204.534129 19.3400953,200.919198 C19.2808665,200.580278 19.2341416,200.312432 19.1972881,200.118951 C18.3845375,195.861717 14.4662238,195.564257 8.83488193,196.425707 C6.49337036,196.783712 -0.633169482,197.87418 0.0453292328,203.001419 L0.061781675,203.11856 C1.94854774,214.987352 5.28115443,226.625152 9.96878425,237.707517 C17.5026866,255.519589 28.2849591,271.512679 42.0168254,285.243229 C55.7486917,298.975753 71.7424398,309.758026 89.5538537,317.290612 C107.993751,325.093018 127.58137,329.048843 147.771807,329.048843 C167.951715,329.048843 187.539992,325.091044 205.990419,317.284689 C223.79591,309.754735 239.789658,298.970488 253.528106,285.231383 C253.559694,285.199794 254.309926,284.455486 254.720579,284.007979 C256.232229,282.362077 257.547766,279.482242 251.546573,273.498817 L251.546573,273.498817 Z M147.585566,35.2549512 C128.292774,35.2549512 107.769998,39.1495733 92.6916634,45.6719794 C91.0799822,46.3030951 90.1165272,47.5975733 89.9046197,49.4165553 C89.7065323,51.1322159 90.1698331,53.396072 91.3228202,56.3417172 C92.257977,58.7312699 94.7416377,65.0786221 99.5503575,63.2445039 C114.98209,57.3578201 132.041298,54.1160308 147.585566,54.1160308 C165.19955,54.1160308 182.281792,57.5638046 198.359118,64.3632699 C211.133453,69.7675681 223.18717,77.5739229 236.291869,88.9293985 C237.247427,89.7579434 238.261555,90.1778098 239.305956,90.1778098 C241.860692,90.1778098 244.311447,87.6678252 246.407489,85.3157841 C249.906594,81.3902314 252.309967,78.127383 248.862193,74.8619023 C236.347807,63.0069306 222.634368,54.15091 205.705463,46.9921234 C187.294522,39.2041954 167.739807,35.2549512 147.585566,35.2549512 L147.585566,35.2549512 Z M121.284034,198.380915 C121.307067,200.561193 123.302419,202.472967 124.494234,203.615424 L124.868692,203.97672 C126.912743,205.987208 128.860054,207.006602 130.655345,207.006602 C132.141987,207.006602 133.058059,206.303753 133.382501,206.001686 C134.282779,205.165244 144.468157,194.844956 145.440167,193.860442 L156.798933,205.182355 C157.850573,206.366931 158.993689,206.960535 160.325679,206.997388 C162.139396,206.997388 164.116322,205.918766 166.200517,203.791794 C171.102028,198.786961 168.649298,196.088103 167.463406,194.783753 L155.954594,183.270992 L167.95698,171.183712 C170.588712,168.335465 168.264969,165.308874 165.946491,162.990396 C162.580322,159.623568 159.332609,158.754879 157.250388,160.673234 L145.316445,172.628237 L133.247591,160.556093 C132.60792,159.943404 131.801093,159.61962 130.914635,159.61962 C129.306244,159.61962 127.403684,160.706797 125.258286,162.852195 C121.546615,166.563208 120.750974,169.128473 122.682491,171.175157 L134.754635,183.210447 L122.753566,195.232576 C121.766419,196.218406 121.272188,197.277285 121.284034,198.380915 L121.284034,198.380915 Z M44.7525375,216.204833 C44.8249282,216.404237 46.5294012,221.11819 47.5172058,223.454437 C52.9392727,236.274838 60.7041673,247.790889 70.5960336,257.683414 C80.481319,267.567383 91.9986866,275.33162 104.829617,280.758293 C118.112003,286.377131 132.218327,289.226036 146.757021,289.226036 C161.293082,289.226036 175.399406,286.376473 188.684424,280.756977 C201.51009,275.332278 213.028116,267.567383 222.91735,257.678149 C232.805926,247.790889 240.570162,236.272864 245.996178,223.445882 C251.615016,210.161522 254.46392,196.05454 254.46392,181.51782 C254.46392,166.980442 251.615016,152.87346 245.996178,139.590416 C240.571478,126.764093 232.806584,115.246067 222.91735,105.356833 C213.031406,95.4702314 201.513381,87.7053368 188.684424,82.2780051 C175.400723,76.6591671 161.294399,73.8102622 146.757021,73.8102622 C132.047221,73.8102622 117.349268,76.7381388 104.251149,82.2780051 C93.7814732,86.7070026 76.0602187,98.1092031 65.687283,108.807239 L65.6260799,108.869758 L65.6260799,20.2279486 L214.527262,20.2266324 C219.946039,20.1674036 219.946039,12.6005964 219.946039,10.1136452 C219.946039,7.62801028 219.946039,0.0631773779 214.51081,0.00131619537 L53.5091853,0 C49.1262547,0 46.4129179,3.64586118 46.4129179,7.02387661 L46.4129179,131.791959 C46.4129179,135.816884 51.4269642,138.723702 56.0856377,139.720062 C65.1838382,141.663424 67.2858022,138.75529 69.514121,135.678026 L69.8096069,135.270005 C73.2113138,130.216473 83.8415657,119.517779 83.9481776,119.411167 C100.537504,102.821841 122.719345,93.6861285 146.406255,93.6861285 C169.979972,93.6861285 192.098635,102.821841 208.687962,119.411167 C225.333226,136.057748 234.500527,158.113892 234.500527,181.51782 C234.500527,205.006643 225.380609,227.062129 208.819581,243.623157 C192.47046,259.972278 169.630522,269.348853 146.157494,269.348853 C130.258512,269.348853 114.911674,265.112679 101.765514,257.095733 L101.821453,181.231548 C101.821453,171.115928 106.211622,160.119774 113.56389,151.815897 C121.970429,142.322838 133.555581,137.09491 146.18645,137.09491 C158.418512,137.09491 169.842429,141.738447 178.354923,150.170653 C186.806214,158.542972 191.46028,169.697069 191.46028,181.579023 C191.46028,206.93092 171.525185,226.789676 146.076548,226.789676 C141.170429,226.789676 132.25189,224.621902 131.885329,224.532401 C126.746902,223.002324 124.560702,230.136103 123.841401,232.487486 C121.075417,241.530406 125.231962,243.323064 126.093411,243.59091 C134.282779,246.132483 139.652856,246.614211 146.697134,246.614211 C182.623345,246.614211 211.850779,217.37164 211.850779,181.428977 C211.850779,145.77456 182.641113,116.766931 146.737278,116.766931 C129.154882,116.766931 112.637288,123.488082 100.228198,135.691846 C88.410738,147.314509 81.6323318,162.811393 81.6323318,178.205614 L81.6257508,178.587969 C81.5684963,180.50764 81.5309848,225.986797 81.5197971,240.911794 L81.4526711,240.837429 C74.6999308,233.360123 68.025504,221.914488 63.6004552,210.220751 C61.8657097,205.637758 57.9473961,206.449193 52.6003524,208.095753 C50.2654218,208.815054 43.159283,211.003887 44.7308202,216.140997 L44.7525375,216.204833 L44.7525375,216.204833 Z" fill="#0A0A08"></path>
    </g>
</svg>
